X: 515
T: the Whin Blossom   #2
R: jig, air
%S: s:2 b:16(8+8)
B: O'Neill's 1850 #515
O: O'Reilly
Z: Dave Wooldridge
N: Compacted via repeats and multiple endings [JC]
N: Compacted by using labels and play order [JC]
P: Play A1A2 BA2
N: Slurs not transcribed in this version, to make the compacting possible.
Q: "Graceful"
M: 6/8
L: 1/8
K: D
"^A"|: D/E/ | FGA GAE | DEG A2 B/c/ | dcA GAE |1 D3 C2 :|2 D3 "^fine"D2 |]
"^B"[| G | ABc d2e/d/ | cdc A2 G/A/ | dcA GAE | D3 "->A2"C2 |]
